tools/download-figma-icons/icons/action/phone.svg

<svg width="24" height="24" viewBox="0 0 24 24" fill="none" xmlns="http://www.w3.org/2000/svg">
<path fill-rule="evenodd" clip-rule="evenodd" d="M17.3403 23.9585C14.7493 23.9585 10.7943 22.8655 5.96836 18.0395C-1.03262 11.0386 -1.09261 4.74459 1.80238 1.8486C4.49737 -0.84739 6.08036 0.0976066 6.50336 0.452605C7.17836 1.0226 8.47535 2.7616 9.39335 4.57759C10.5823 6.93058 9.54035 7.74258 8.09836 8.86558L7.70736 9.17158C7.28736 9.50358 7.27436 9.73058 7.26936 9.81558C7.21036 10.8266 9.29335 12.9106 10.1823 13.7996C11.0713 14.6886 13.1623 16.7916 14.1663 16.7126C14.2513 16.7086 14.4783 16.6946 14.8103 16.2746L15.1163 15.8836C16.2403 14.4416 17.0503 13.3996 19.4043 14.5886C21.2233 15.5076 22.9613 16.8056 23.5293 17.4796C23.7903 17.7895 24.3273 18.6655 23.6753 20.0985C23.4463 20.6015 22.8533 20.8225 22.3513 20.5945C21.8483 20.3655 21.6263 19.7725 21.8553 19.2705C22.0263 18.8955 21.9813 18.7395 21.9803 18.7375C21.6793 18.3875 20.1953 17.2296 18.5023 16.3736C17.6163 15.9266 17.6173 15.9276 16.6943 17.1126L16.3803 17.5136C15.7903 18.2605 15.0853 18.6625 14.2833 18.7095C12.6873 18.7995 11.0533 17.4996 8.76835 15.2136C6.48336 12.9286 5.17936 11.2936 5.27236 9.69858C5.31936 8.89658 5.72236 8.19158 6.46836 7.60258L6.86936 7.28858C8.05536 6.36459 8.05536 6.36459 7.60836 5.47959C6.75336 3.7886 5.59536 2.3036 5.21437 1.9826C5.12637 1.9566 4.43137 2.0486 3.21637 3.2626C1.36838 5.11159 0.945379 10.1886 7.35636 16.5996C13.9633 23.2055 18.3263 22.0745 19.5053 21.5685C20.0143 21.3535 20.6013 21.5885 20.8173 22.0965C21.0343 22.6045 20.7983 23.1915 20.2903 23.4085C19.7703 23.6305 18.7593 23.9585 17.3403 23.9585Z" fill="black"/>
</svg>

<svg width="24" height="24" viewBox="0 0 24 24" fill="none" xmlns="http://www.w3.org/2000/svg"><path fill-rule="evenodd" clip-rule="evenodd" d="M17.34 23.959c-2.59 0-6.546-1.093-11.372-5.92-7-7-7.06-13.294-4.166-16.19C4.497-.847 6.08.098 6.503.453c.675.57 1.972 2.309 2.89 4.125 1.19 2.353.147 3.165-1.295 4.288l-.39.306c-.42.332-.434.559-.439.644-.059 1.01 2.024 3.095 2.913 3.984.89.889 2.98 2.992 3.984 2.913.085-.004.312-.018.644-.438l.306-.391c1.124-1.442 1.934-2.484 4.288-1.295 1.82.919 3.557 2.217 4.125 2.89.261.31.798 1.187.146 2.62a1 1 0 0 1-1.82-.829c.171-.375.126-.53.125-.532-.3-.35-1.785-1.508-3.478-2.364-.886-.447-.885-.446-1.808.739l-.314.4c-.59.747-1.295 1.15-2.097 1.196-1.596.09-3.23-1.21-5.515-3.495-2.285-2.285-3.589-3.92-3.496-5.515.047-.802.45-1.507 1.196-2.096l.401-.314c1.186-.924 1.186-.924.74-1.81-.856-1.69-2.014-3.175-2.395-3.496-.088-.026-.783.066-1.998 1.28C1.368 5.112.946 10.189 7.356 16.6c6.607 6.605 10.97 5.474 12.15 4.968a1 1 0 0 1 .784 1.84c-.52.223-1.53.55-2.95.55Z" fill="currentColor"/></svg>
